app/img/icons/servises-icon-4.svg

<svg width="64" height="64" viewBox="0 0 64 64" fill="none" xmlns="http://www.w3.org/2000/svg">
<path d="M42.0059 56H23.0059V62H42.0059V56Z" fill="black"/>
<path d="M42.0059 56H23.0059V62H42.0059V56Z" fill="url(#paint0_linear)"/>
<path d="M15.1723 2.45229L1.7373 15.8873L5.27285 19.4229L18.7079 5.98783L15.1723 2.45229Z" fill="black"/>
<path d="M15.1723 2.45229L1.7373 15.8873L5.27285 19.4229L18.7079 5.98783L15.1723 2.45229Z" fill="url(#paint1_linear)"/>
<path d="M49.1127 2.32178L45.5771 5.8573L59.0122 19.2924L62.5477 15.7568L49.1127 2.32178Z" fill="black"/>
<path d="M49.1127 2.32178L45.5771 5.8573L59.0122 19.2924L62.5477 15.7568L49.1127 2.32178Z" fill="url(#paint2_linear)"/>
<path d="M44.5564 9.7066L41.8651 9.59253C41.089 9.48299 40.2981 9.55529 39.5548 9.80375C38.8115 10.0522 38.1361 10.47 37.5819 11.0242L32.0775 16.5286L26.3239 10.7751C25.8244 10.287 25.2011 9.94445 24.5214 9.78429C23.8416 9.62412 23.131 9.65243 22.4661 9.86615C21.8388 10.0569 21.1715 10.0736 20.5355 9.91457C19.8995 9.75549 19.3186 9.42658 18.8551 8.963L18.0012 8.10912L7.39453 18.7157L9.12253 20.4437L9.00845 23.1349C8.89891 23.911 8.97122 24.7019 9.21966 25.4452C9.46811 26.1885 9.8859 26.8639 10.4401 27.4181L20.0525 37.0305C20.181 35.7687 20.7856 34.6033 21.7432 33.7716L18.7482 30.7767L19.4553 30.0696L22.5836 33.1978C23.027 32.9454 23.5068 32.763 24.0059 32.6572V28.9633L22.2838 27.2411L22.9908 26.534L24.0059 27.5491V22.1992C23.9948 21.3149 24.3086 20.4573 24.8879 19.7891C25.4672 19.1209 26.2716 18.6886 27.1485 18.5742C27.4792 18.5421 27.8128 18.5572 28.1393 18.619L26.9098 17.3895L27.6169 16.6824L29.4131 18.4786C29.7312 17.8622 30.2233 17.3528 30.8283 17.0136C31.4333 16.6744 32.1246 16.5202 32.8165 16.5703C33.6513 16.6678 34.4258 17.0543 35.0057 17.6629C35.5855 18.2715 35.9342 19.0637 35.9913 19.9023C36.5596 19.6322 37.1894 19.5176 37.8165 19.5703C38.7075 19.677 39.5273 20.1108 40.1166 20.7876C40.7059 21.4645 41.0229 22.3361 41.0059 23.2334V26.6572C41.916 26.8473 42.7551 27.2872 43.4292 27.9275C44.1032 28.5678 44.5855 29.3833 44.822 30.2824L47.6105 27.4939L48.3176 28.201L45.0023 31.5163C45.0024 31.53 45.0059 31.5428 45.0059 31.5566V34.8767C45.9043 34.7827 46.7437 34.3845 47.3848 33.7482L54.225 26.9081C54.7131 26.4085 55.0556 25.7853 55.2158 25.1055C55.3759 24.4257 55.3476 23.7151 55.1339 23.0502C54.9431 22.423 54.9264 21.7557 55.0855 21.1196C55.2445 20.4836 55.5735 19.9027 56.0371 19.4391L56.8909 18.5853L46.2844 7.97864L44.5564 9.7066Z" fill="black"/>
<path d="M44.5564 9.7066L41.8651 9.59253C41.089 9.48299 40.2981 9.55529 39.5548 9.80375C38.8115 10.0522 38.1361 10.47 37.5819 11.0242L32.0775 16.5286L26.3239 10.7751C25.8244 10.287 25.2011 9.94445 24.5214 9.78429C23.8416 9.62412 23.131 9.65243 22.4661 9.86615C21.8388 10.0569 21.1715 10.0736 20.5355 9.91457C19.8995 9.75549 19.3186 9.42658 18.8551 8.963L18.0012 8.10912L7.39453 18.7157L9.12253 20.4437L9.00845 23.1349C8.89891 23.911 8.97122 24.7019 9.21966 25.4452C9.46811 26.1885 9.8859 26.8639 10.4401 27.4181L20.0525 37.0305C20.181 35.7687 20.7856 34.6033 21.7432 33.7716L18.7482 30.7767L19.4553 30.0696L22.5836 33.1978C23.027 32.9454 23.5068 32.763 24.0059 32.6572V28.9633L22.2838 27.2411L22.9908 26.534L24.0059 27.5491V22.1992C23.9948 21.3149 24.3086 20.4573 24.8879 19.7891C25.4672 19.1209 26.2716 18.6886 27.1485 18.5742C27.4792 18.5421 27.8128 18.5572 28.1393 18.619L26.9098 17.3895L27.6169 16.6824L29.4131 18.4786C29.7312 17.8622 30.2233 17.3528 30.8283 17.0136C31.4333 16.6744 32.1246 16.5202 32.8165 16.5703C33.6513 16.6678 34.4258 17.0543 35.0057 17.6629C35.5855 18.2715 35.9342 19.0637 35.9913 19.9023C36.5596 19.6322 37.1894 19.5176 37.8165 19.5703C38.7075 19.677 39.5273 20.1108 40.1166 20.7876C40.7059 21.4645 41.0229 22.3361 41.0059 23.2334V26.6572C41.916 26.8473 42.7551 27.2872 43.4292 27.9275C44.1032 28.5678 44.5855 29.3833 44.822 30.2824L47.6105 27.4939L48.3176 28.201L45.0023 31.5163C45.0024 31.53 45.0059 31.5428 45.0059 31.5566V34.8767C45.9043 34.7827 46.7437 34.3845 47.3848 33.7482L54.225 26.9081C54.7131 26.4085 55.0556 25.7853 55.2158 25.1055C55.3759 24.4257 55.3476 23.7151 55.1339 23.0502C54.9431 22.423 54.9264 21.7557 55.0855 21.1196C55.2445 20.4836 55.5735 19.9027 56.0371 19.4391L56.8909 18.5853L46.2844 7.97864L44.5564 9.7066Z" fill="url(#paint3_linear)"/>
<path d="M29.8802 21.6894C29.8042 21.0397 29.4757 20.4461 28.9657 20.0366C28.4557 19.6271 27.8051 19.4346 27.1544 19.5007C26.5232 19.5878 25.946 19.9038 25.5326 20.3887C25.1192 20.8735 24.8984 21.4934 24.9121 22.1304V33.4877C23.8512 33.4877 22.8338 33.9092 22.0837 34.6593C21.3335 35.4094 20.9121 36.4269 20.9121 37.4877V47.1612C20.9202 47.8596 21.1187 48.5425 21.4861 49.1364C21.8536 49.7303 22.376 50.2128 22.9973 50.5318C23.5757 50.8404 24.0594 51.3004 24.3967 51.8627C24.734 52.4249 24.9121 53.0682 24.9121 53.7238V54.9314H39.9121V52.4877L41.8958 50.6653C42.522 50.1941 43.0301 49.5837 43.38 48.8824C43.73 48.1811 43.9121 47.4081 43.9121 46.6243V31.4877C43.9121 30.4269 43.4907 29.4094 42.7405 28.6593C41.9904 27.9092 40.973 27.4877 39.9121 27.4877V23.1652C39.9291 22.5179 39.706 21.8873 39.2857 21.3948C38.8655 20.9022 38.2778 20.5826 37.636 20.4976C37.006 20.4419 36.3785 20.6278 35.8804 21.0175C35.3824 21.4073 35.0511 21.9718 34.9537 22.5966H35.4121V38.04H34.4121V22.5966H34.9121V20.1652C34.9291 19.5179 34.706 18.8873 34.2857 18.3948C33.8655 17.9022 33.2778 17.5826 32.636 17.4976C32.2902 17.4665 31.9417 17.5078 31.6128 17.6189C31.2838 17.7299 30.9816 17.9082 30.7254 18.1425C30.4691 18.3767 30.2645 18.6618 30.1245 18.9795C29.9845 19.2972 29.9121 19.6405 29.9121 19.9877V21.6894H30.4121V37.1327H29.4121V21.6894H29.8802ZM25.3113 42.04H24.3113V34.04H25.3113V42.04ZM39.4121 27.7982H40.4121V38.2416H39.4121V27.7982Z" fill="black"/>
<path d="M29.8802 21.6894C29.8042 21.0397 29.4757 20.4461 28.9657 20.0366C28.4557 19.6271 27.8051 19.4346 27.1544 19.5007C26.5232 19.5878 25.946 19.9038 25.5326 20.3887C25.1192 20.8735 24.8984 21.4934 24.9121 22.1304V33.4877C23.8512 33.4877 22.8338 33.9092 22.0837 34.6593C21.3335 35.4094 20.9121 36.4269 20.9121 37.4877V47.1612C20.9202 47.8596 21.1187 48.5425 21.4861 49.1364C21.8536 49.7303 22.376 50.2128 22.9973 50.5318C23.5757 50.8404 24.0594 51.3004 24.3967 51.8627C24.734 52.4249 24.9121 53.0682 24.9121 53.7238V54.9314H39.9121V52.4877L41.8958 50.6653C42.522 50.1941 43.0301 49.5837 43.38 48.8824C43.73 48.1811 43.9121 47.4081 43.9121 46.6243V31.4877C43.9121 30.4269 43.4907 29.4094 42.7405 28.6593C41.9904 27.9092 40.973 27.4877 39.9121 27.4877V23.1652C39.9291 22.5179 39.706 21.8873 39.2857 21.3948C38.8655 20.9022 38.2778 20.5826 37.636 20.4976C37.006 20.4419 36.3785 20.6278 35.8804 21.0175C35.3824 21.4073 35.0511 21.9718 34.9537 22.5966H35.4121V38.04H34.4121V22.5966H34.9121V20.1652C34.9291 19.5179 34.706 18.8873 34.2857 18.3948C33.8655 17.9022 33.2778 17.5826 32.636 17.4976C32.2902 17.4665 31.9417 17.5078 31.6128 17.6189C31.2838 17.7299 30.9816 17.9082 30.7254 18.1425C30.4691 18.3767 30.2645 18.6618 30.1245 18.9795C29.9845 19.2972 29.9121 19.6405 29.9121 19.9877V21.6894H30.4121V37.1327H29.4121V21.6894H29.8802ZM25.3113 42.04H24.3113V34.04H25.3113V42.04ZM39.4121 27.7982H40.4121V38.2416H39.4121V27.7982Z" fill="url(#paint4_linear)"/>
<defs>
<linearGradient id="paint0_linear" x1="32.5059" y1="56" x2="32.5059" y2="62" gradientUnits="userSpaceOnUse">
<stop stop-color="#EF8080"/>
<stop offset="1" stop-color="#F0145A"/>
</linearGradient>
<linearGradient id="paint1_linear" x1="8.45483" y1="9.16981" x2="11.9904" y2="12.7053" gradientUnits="userSpaceOnUse">
<stop stop-color="#EF8080"/>
<stop offset="1" stop-color="#F0145A"/>
</linearGradient>
<linearGradient id="paint2_linear" x1="47.3449" y1="4.08954" x2="60.78" y2="17.5246" gradientUnits="userSpaceOnUse">
<stop stop-color="#EF8080"/>
<stop offset="1" stop-color="#F0145A"/>
</linearGradient>
<linearGradient id="paint3_linear" x1="32.1427" y1="7.97864" x2="32.1427" y2="37.0305" gradientUnits="userSpaceOnUse">
<stop stop-color="#EF8080"/>
<stop offset="1" stop-color="#F0145A"/>
</linearGradient>
<linearGradient id="paint4_linear" x1="32.4121" y1="17.4875" x2="32.4121" y2="54.9314" gradientUnits="userSpaceOnUse">
<stop stop-color="#EF8080"/>
<stop offset="1" stop-color="#F0145A"/>
</linearGradient>
</defs>
</svg>

<svg xmlns="http://www.w3.org/2000/svg" xmlns:xlink="http://www.w3.org/1999/xlink" width="64" height="64" fill="none" xmlns:v="https://vecta.io/nano"><path d="M42.006 56h-19v6h19v-6z" fill="#000"/><path d="M42.006 56h-19v6h19v-6z" fill="url(#A)"/><path d="M15.172 2.452L1.737 15.887l3.536 3.536L18.708 5.988l-3.536-3.536z" fill="#000"/><path d="M15.172 2.452L1.737 15.887l3.536 3.536L18.708 5.988l-3.536-3.536z" fill="url(#B)"/><path d="M49.113 2.322l-3.536 3.536 13.435 13.435 3.535-3.536L49.113 2.322z" fill="#000"/><path d="M49.113 2.322l-3.536 3.536 13.435 13.435 3.535-3.536L49.113 2.322z" fill="url(#C)"/><use xlink:href="#F" fill="#000"/><use xlink:href="#F" fill="url(#D)"/><use xlink:href="#G" fill="#000"/><use xlink:href="#G" fill="url(#E)"/><defs><linearGradient id="A" x1="32.506" y1="56" x2="32.506" y2="62" xlink:href="#H"><stop stop-color="#ef8080"/><stop offset="1" stop-color="#f0145a"/></linearGradient><linearGradient id="B" x1="8.455" y1="9.17" x2="11.99" y2="12.705" xlink:href="#H"><stop stop-color="#ef8080"/><stop offset="1" stop-color="#f0145a"/></linearGradient><linearGradient id="C" x1="47.345" y1="4.09" x2="60.78" y2="17.525" xlink:href="#H"><stop stop-color="#ef8080"/><stop offset="1" stop-color="#f0145a"/></linearGradient><linearGradient id="D" x1="32.143" y1="7.979" x2="32.143" y2="37.031" xlink:href="#H"><stop stop-color="#ef8080"/><stop offset="1" stop-color="#f0145a"/></linearGradient><linearGradient id="E" x1="32.412" y1="17.488" x2="32.412" y2="54.931" xlink:href="#H"><stop stop-color="#ef8080"/><stop offset="1" stop-color="#f0145a"/></linearGradient><path id="F" d="M44.556 9.707l-2.691-.114a5.06 5.06 0 0 0-2.31.211c-.743.248-1.419.666-1.973 1.22l-5.504 5.504-5.754-5.754a3.84 3.84 0 0 0-3.858-.909 3.62 3.62 0 0 1-3.611-.903l-.854-.854L7.395 18.716l1.728 1.728-.114 2.691a5.06 5.06 0 0 0 .211 2.31c.248.743.666 1.419 1.22 1.973l9.612 9.612c.129-1.262.733-2.427 1.691-3.259l-2.995-2.995.707-.707 3.128 3.128a4.95 4.95 0 0 1 1.422-.541v-3.694l-1.722-1.722.707-.707 1.015 1.015v-5.35a3.61 3.61 0 0 1 3.143-3.625c.331-.032.664-.017.991.045L26.91 17.39l.707-.707 1.796 1.796a3.54 3.54 0 0 1 3.403-1.908 3.6 3.6 0 0 1 3.175 3.332 3.56 3.56 0 0 1 1.825-.332 3.62 3.62 0 0 1 3.189 3.663v3.424c.91.19 1.749.63 2.423 1.27s1.156 1.456 1.393 2.355l2.788-2.788.707.707-3.315 3.315c0 .014.004.026.004.04v3.32a3.96 3.96 0 0 0 2.379-1.129l6.84-6.84a3.84 3.84 0 0 0 .909-3.858c-.191-.627-.207-1.294-.048-1.931a3.62 3.62 0 0 1 .952-1.68l.854-.854L46.284 7.979l-1.728 1.728z"/><path id="G" d="M29.88 21.689a2.49 2.49 0 0 0-2.726-2.189 2.6 2.6 0 0 0-2.242 2.63v11.357a4 4 0 0 0-4 4v9.674a3.84 3.84 0 0 0 2.085 3.371 3.62 3.62 0 0 1 1.399 1.331c.337.562.515 1.206.515 1.861v1.208h15v-2.444l1.984-1.822c.626-.471 1.134-1.082 1.484-1.783s.532-1.474.532-2.258V31.488a4 4 0 0 0-4-4v-4.323a2.62 2.62 0 0 0-2.276-2.668c-.63-.056-1.258.13-1.756.52s-.829.954-.927 1.579h.458V38.04h-1V22.597h.5v-2.431a2.62 2.62 0 0 0-2.276-2.668 2.5 2.5 0 0 0-1.911.645 2.5 2.5 0 0 0-.813 1.845v1.702h.5v15.443h-1V21.689h.468zM25.311 42.04h-1v-8h1v8zm14.101-14.242h1v10.443h-1V27.798z"/><linearGradient id="H" gradientUnits="userSpaceOnUse"/></defs></svg>
